Origami/16x16/apps/protonmail-desktop.svg

<svg width="16" height="16" version="1" xmlns="http://www.w3.org/2000/svg">
 <path d="m16 8a8 8 0 0 1 -8 8 8 8 0 0 1 -8 -8 8 8 0 0 1 8 -8 8 8 0 0 1 8 8z" style="fill:#4f4f4f"/>
 <path d="m8 3c-0.250931 0-0.5023122 0.0111961-0.6621094 0.0332031-1.9287982 0.2655578-3.0686482 1.1640782-3.296875 2.5996094-0.0252126 0.1586071-0.0330604 0.4404987-0.0371094 1.5195313l-0.0019531 0.8476562h-0.0019531v0.4335938 1l0.0039062-0.9960938 0.0527344 0.0820312c0.1381436 0.2111347 0.3282123 0.3586458 1.2363282 0.9609376 1.5182232 1.0069372 2.1430231 1.3744182 2.5273437 1.4863282 0.060653 0.01765 0.1438361 0.032693 0.1855469 0.033203 0.2550643 0.0032 0.9997337-0.396738 2.1289066-1.1425781 1.408159-0.9301185 1.66941-1.1231379 1.80664-1.3339844l0.058594-0.0898437v-0.0566407-0.3769531-0.6230469c0-1.3787598-0.010675-1.6224861-0.078125-1.9179687-0.120291-0.5269391-0.338543-0.9440206-0.6875-1.3066406-0.560109-0.5820414-1.4355158-0.9626328-2.5722656-1.1191407-0.159803-0.0219999-0.4111788-0.0332031-0.6621094-0.0332031zm-4 6.4335938v2.7617182h0.0078125l0.0019531 0.46875 0.0605469 0.105469c0.046209 0.08056 0.0830274 0.116754 0.1582031 0.158203l0.0976563 0.054688 1.59375 0.009766c0.8765243 0.004897 2.5175079 0.008212 3.6464843 0.007812h2.0527348l0.099609-0.041016c0.12755-0.05137 0.165482-0.081578 0.224609-0.185546l0.046875-0.085938v-0.492188h0.009766v-2.7617182l-0.058594 0.0898437c-0.13723 0.2108465-0.398481 0.4038656-1.80664 1.3339845-1.1291733 0.74584-1.8738423 1.145778-2.1289066 1.142578-0.0417108-5.1e-4 -0.1248939-0.015553-0.1855469-0.033203-0.3843206-0.11191-1.0091207-0.479391-2.5273437-1.486328-0.9081159-0.6022926-1.0981846-0.7498031-1.2363282-0.9609378l-0.0566406-0.0859374zm4-4.4335938c0.9074535 0 1.6953946 0.7077118 1.953125 1.5742188 0.04537 0.1525552 0.046875 0.1587684 0.046875 0.7792968 0 0.344054-0.0052207 0.6317348-0.0117188 0.6386719-0.0065698 0.00693-0.8973746 0.0104205-1.9882812 0.0078125-1.0909066 0.00262-1.9817488-8.826e-4 -1.9882812-0.0078125-0.0065201-0.00694-0.0117188-0.2946179-0.0117188-0.6386719 0-0.6205284 0.001501-0.6267416 0.046875-0.7792968 0.2577355-0.866507 1.045672-1.5742188 1.953125-1.5742188z" style="fill:#ffffff"/>
</svg>

<svg xmlns="http://www.w3.org/2000/svg" width="16" height="16" version="1">
 <path style="fill:#4f4f4f" d="M 16,8 A 8,8 0 0 1 8,16 8,8 0 0 1 0,8 8,8 0 0 1 8,0 8,8 0 0 1 16,8 Z"/>
 <path style="fill:#ffffff" d="M 8 3 C 7.749069 3 7.4976878 3.0111961 7.3378906 3.0332031 C 5.4090924 3.2987609 4.2692424 4.1972813 4.0410156 5.6328125 C 4.015803 5.7914196 4.0079552 6.0733112 4.0039062 7.1523438 L 4.0019531 8 L 4 8 L 4 8.4335938 L 4 9.4335938 L 4.0039062 8.4375 L 4.0566406 8.5195312 C 4.1947842 8.7306659 4.3848529 8.878177 5.2929688 9.4804688 C 6.811192 10.487406 7.4359919 10.854887 7.8203125 10.966797 C 7.8809655 10.984447 7.9641486 10.99949 8.0058594 11 C 8.2609237 11.0032 9.0055931 10.603262 10.134766 9.8574219 C 11.542925 8.9273034 11.804176 8.734284 11.941406 8.5234375 L 12 8.4335938 L 12 8.3769531 L 12 8 L 12 7.3769531 C 12 5.9981933 11.989325 5.754467 11.921875 5.4589844 C 11.801584 4.9320453 11.583332 4.5149638 11.234375 4.1523438 C 10.674266 3.5703024 9.7988592 3.189711 8.6621094 3.0332031 C 8.5023064 3.0112032 8.2509306 3 8 3 z M 4 9.4335938 L 4 12.195312 L 4.0078125 12.195312 L 4.0097656 12.664062 L 4.0703125 12.769531 C 4.1165215 12.850091 4.1533399 12.886285 4.2285156 12.927734 L 4.3261719 12.982422 L 5.9199219 12.992188 C 6.7964462 12.997085 8.4374298 13.0004 9.5664062 13 L 11.619141 13 L 11.71875 12.958984 C 11.8463 12.907614 11.884232 12.877406 11.943359 12.773438 L 11.990234 12.6875 L 11.990234 12.195312 L 12 12.195312 L 12 9.4335938 L 11.941406 9.5234375 C 11.804176 9.734284 11.542925 9.9273031 10.134766 10.857422 C 9.0055927 11.603262 8.2609237 12.0032 8.0058594 12 C 7.9641486 11.99949 7.8809655 11.984447 7.8203125 11.966797 C 7.4359919 11.854887 6.8111918 11.487406 5.2929688 10.480469 C 4.3848529 9.8781764 4.1947842 9.7306659 4.0566406 9.5195312 L 4 9.4335938 z M 8 5 C 8.9074535 5 9.6953946 5.7077118 9.953125 6.5742188 C 9.998495 6.726774 10 6.7329872 10 7.3535156 C 10 7.6975696 9.9947793 7.9852504 9.9882812 7.9921875 C 9.9817114 7.9991175 9.0909066 8.002608 8 8 C 6.9090934 8.00262 6.0182512 7.9991174 6.0117188 7.9921875 C 6.0051987 7.9852475 6 7.6975696 6 7.3535156 C 6 6.7329872 6.001501 6.726774 6.046875 6.5742188 C 6.3046105 5.7077118 7.092547 5 8 5 z"/>
</svg>
